X: 154
T: Sage Leaf
M:6/8
L:1/8
Q:160
S:Playford
O:Manuscript
A:English
K:G
dg=f ecf|d>cB/2A/2 B G2|dg=f ecf|d>cB/2A/2 B G2:|
|: B2 c d2B|e2 d cdB|A2 G F>EF|G3 G2 z:|
|: d2 c B>AG|def g3|d2 c BAG|dc>f g3|d2 c B>cd|e2 d c>dB|A2 G F>ED|G3 G2:|
|: G|F>GA AFD|G>AB BAG| F>GA AFD| G3 G2:|

